app/assets/images/icons/active/hamburger.svg

<?xml version="1.0" encoding="UTF-8" standalone="no"?>
<svg width="32px" height="232px" viewBox="0 0 32 232" version="1.1" xmlns="http://www.w3.org/2000/svg" xmlns:xlink="http://www.w3.org/1999/xlink" xmlns:sketch="http://www.bohemiancoding.com/sketch/ns">
    <title>hamburger</title>
    <description>Created with Sketch (http://www.bohemiancoding.com/sketch)</description>
    <defs></defs>
    <g id="Actions" stroke="none" stroke-width="1" fill="none" fill-rule="evenodd" sketch:type="MSPage">
        <path d="M26.826513,129.38268 L5.17515055,129.38268 C4.25024121,129.38268 3.5,128.62584 3.5,127.69344 C3.5,126.75768 4.25024121,126 5.17515055,126 L26.826513,126 C27.748927,126 28.5,126.75768 28.5,127.69344 C28.5,128.62584 27.748927,129.38268 26.826513,129.38268 L26.826513,129.38268 L26.826513,129.38268 L26.826513,129.38268 Z M5.17515055,131.87412 L26.826513,131.87412 C27.748927,131.87412 28.5,132.63096 28.5,133.56336 C28.5,134.49912 27.748927,135.25596 26.826513,135.25596 L5.17515055,135.25596 C4.25024121,135.25596 3.5,134.49912 3.5,133.56336 C3.5,132.63096 4.25024121,131.87412 5.17515055,131.87412 C5.17515055,131.87412 4.25024121,131.87412 5.17515055,131.87412 L5.17515055,131.87412 L5.17515055,131.87412 Z M26.826513,141.12672 L5.17515055,141.12672 C4.25024121,141.12672 3.5,140.37072 3.5,139.43832 C3.5,138.50172 4.25024121,137.74572 5.17515055,137.74572 L26.826513,137.74572 C27.748927,137.74572 28.5,138.50172 28.5,139.43832 C28.5,140.37072 27.748927,141.12672 26.826513,141.12672 L26.826513,141.12672 L26.826513,141.12672 L26.826513,141.12672 Z M26.826513,147 L5.17515055,147 C4.25024121,147 3.5,146.244 3.5,145.30908 C3.5,144.37584 4.25024121,143.619 5.17515055,143.619 L26.826513,143.619 C27.748927,143.619 28.5,144.37584 28.5,145.30908 C28.5,146.244 27.748927,147 26.826513,147 L26.826513,147 Z M26.826513,147" id="hamburger--lp-blue" fill="#206FAC" sketch:type="MSShapeGroup"></path>
        <path d="M26.826513,89.38268 L5.17515055,89.38268 C4.25024121,89.38268 3.5,88.62584 3.5,87.69344 C3.5,86.75768 4.25024121,86 5.17515055,86 L26.826513,86 C27.748927,86 28.5,86.75768 28.5,87.69344 C28.5,88.62584 27.748927,89.38268 26.826513,89.38268 L26.826513,89.38268 L26.826513,89.38268 L26.826513,89.38268 Z M5.17515055,91.87412 L26.826513,91.87412 C27.748927,91.87412 28.5,92.63096 28.5,93.56336 C28.5,94.49912 27.748927,95.25596 26.826513,95.25596 L5.17515055,95.25596 C4.25024121,95.25596 3.5,94.49912 3.5,93.56336 C3.5,92.63096 4.25024121,91.87412 5.17515055,91.87412 C5.17515055,91.87412 4.25024121,91.87412 5.17515055,91.87412 L5.17515055,91.87412 L5.17515055,91.87412 Z M26.826513,101.12672 L5.17515055,101.12672 C4.25024121,101.12672 3.5,100.37072 3.5,99.43832 C3.5,98.50172 4.25024121,97.74572 5.17515055,97.74572 L26.826513,97.74572 C27.748927,97.74572 28.5,98.50172 28.5,99.43832 C28.5,100.37072 27.748927,101.12672 26.826513,101.12672 L26.826513,101.12672 L26.826513,101.12672 L26.826513,101.12672 Z M26.826513,107 L5.17515055,107 C4.25024121,107 3.5,106.244 3.5,105.30908 C3.5,104.37584 4.25024121,103.619 5.17515055,103.619 L26.826513,103.619 C27.748927,103.619 28.5,104.37584 28.5,105.30908 C28.5,106.244 27.748927,107 26.826513,107 L26.826513,107 Z M26.826513,107" id="hamburger--white" fill="#FFFFFF" sketch:type="MSShapeGroup"></path>
        <path d="M26.826513,49.38268 L5.17515055,49.38268 C4.25024121,49.38268 3.5,48.62584 3.5,47.69344 C3.5,46.75768 4.25024121,46 5.17515055,46 L26.826513,46 C27.748927,46 28.5,46.75768 28.5,47.69344 C28.5,48.62584 27.748927,49.38268 26.826513,49.38268 L26.826513,49.38268 L26.826513,49.38268 L26.826513,49.38268 Z M5.17515055,51.87412 L26.826513,51.87412 C27.748927,51.87412 28.5,52.63096 28.5,53.56336 C28.5,54.49912 27.748927,55.25596 26.826513,55.25596 L5.17515055,55.25596 C4.25024121,55.25596 3.5,54.49912 3.5,53.56336 C3.5,52.63096 4.25024121,51.87412 5.17515055,51.87412 C5.17515055,51.87412 4.25024121,51.87412 5.17515055,51.87412 L5.17515055,51.87412 L5.17515055,51.87412 Z M26.826513,61.12672 L5.17515055,61.12672 C4.25024121,61.12672 3.5,60.37072 3.5,59.43832 C3.5,58.50172 4.25024121,57.74572 5.17515055,57.74572 L26.826513,57.74572 C27.748927,57.74572 28.5,58.50172 28.5,59.43832 C28.5,60.37072 27.748927,61.12672 26.826513,61.12672 L26.826513,61.12672 L26.826513,61.12672 L26.826513,61.12672 Z M26.826513,67 L5.17515055,67 C4.25024121,67 3.5,66.244 3.5,65.30908 C3.5,64.37584 4.25024121,63.619 5.17515055,63.619 L26.826513,63.619 C27.748927,63.619 28.5,64.37584 28.5,65.30908 C28.5,66.244 27.748927,67 26.826513,67 L26.826513,67 Z M26.826513,67" id="hamburger--body-grey" fill="#67737B" sketch:type="MSShapeGroup"></path>
        <path d="M26.826513,9.38268 L5.17515055,9.38268 C4.25024121,9.38268 3.5,8.62584 3.5,7.69344 C3.5,6.75768 4.25024121,6 5.17515055,6 L26.826513,6 C27.748927,6 28.5,6.75768 28.5,7.69344 C28.5,8.62584 27.748927,9.38268 26.826513,9.38268 L26.826513,9.38268 L26.826513,9.38268 L26.826513,9.38268 Z M5.17515055,11.87412 L26.826513,11.87412 C27.748927,11.87412 28.5,12.63096 28.5,13.56336 C28.5,14.49912 27.748927,15.25596 26.826513,15.25596 L5.17515055,15.25596 C4.25024121,15.25596 3.5,14.49912 3.5,13.56336 C3.5,12.63096 4.25024121,11.87412 5.17515055,11.87412 C5.17515055,11.87412 4.25024121,11.87412 5.17515055,11.87412 L5.17515055,11.87412 L5.17515055,11.87412 Z M26.826513,21.12672 L5.17515055,21.12672 C4.25024121,21.12672 3.5,20.37072 3.5,19.43832 C3.5,18.50172 4.25024121,17.74572 5.17515055,17.74572 L26.826513,17.74572 C27.748927,17.74572 28.5,18.50172 28.5,19.43832 C28.5,20.37072 27.748927,21.12672 26.826513,21.12672 L26.826513,21.12672 L26.826513,21.12672 L26.826513,21.12672 Z M26.826513,27 L5.17515055,27 C4.25024121,27 3.5,26.244 3.5,25.30908 C3.5,24.37584 4.25024121,23.619 5.17515055,23.619 L26.826513,23.619 C27.748927,23.619 28.5,24.37584 28.5,25.30908 C28.5,26.244 27.748927,27 26.826513,27 L26.826513,27 Z M26.826513,27" id="hamburger--title-grey" fill="#3A434E" sketch:type="MSShapeGroup"></path>
    </g>
</svg>

<svg width="32" height="232" viewBox="0 0 32 232" xmlns="http://www.w3.org/2000/svg" xmlns:sketch="http://www.bohemiancoding.com/sketch/ns"><title>hamburger</title><g sketch:type="MSPage" fill="none"><path d="M26.827 129.383h-21.651c-.925 0-1.675-.757-1.675-1.689 0-.936.75-1.693 1.675-1.693h21.651c.922 0 1.673.758 1.673 1.693 0 .932-.751 1.689-1.673 1.689zm-21.651 2.491h21.651c.922 0 1.673.757 1.673 1.689 0 .936-.751 1.693-1.673 1.693h-21.651c-.925 0-1.675-.757-1.675-1.693 0-.932.75-1.689 1.675-1.689zm21.651 9.253h-21.651c-.925 0-1.675-.756-1.675-1.688 0-.937.75-1.693 1.675-1.693h21.651c.922 0 1.673.756 1.673 1.693 0 .932-.751 1.688-1.673 1.688zm0 5.873h-21.651c-.925 0-1.675-.756-1.675-1.691 0-.933.75-1.69 1.675-1.69h21.651c.922 0 1.673.757 1.673 1.69 0 .935-.751 1.691-1.673 1.691zm0 0" fill="#206FAC" sketch:type="MSShapeGroup"/><path d="M26.827 89.383h-21.651c-.925 0-1.675-.757-1.675-1.689 0-.936.75-1.693 1.675-1.693h21.651c.922 0 1.673.758 1.673 1.693 0 .932-.751 1.689-1.673 1.689zm-21.651 2.491h21.651c.922 0 1.673.757 1.673 1.689 0 .936-.751 1.693-1.673 1.693h-21.651c-.925 0-1.675-.757-1.675-1.693 0-.932.75-1.689 1.675-1.689zm21.651 9.253h-21.651c-.925 0-1.675-.756-1.675-1.688 0-.937.75-1.693 1.675-1.693h21.651c.922 0 1.673.756 1.673 1.693 0 .932-.751 1.688-1.673 1.688zm0 5.873h-21.651c-.925 0-1.675-.756-1.675-1.691 0-.933.75-1.69 1.675-1.69h21.651c.922 0 1.673.757 1.673 1.69 0 .935-.751 1.691-1.673 1.691zm0 0" fill="#fff" sketch:type="MSShapeGroup"/><path d="M26.827 49.383h-21.651c-.925 0-1.675-.757-1.675-1.689 0-.936.75-1.693 1.675-1.693h21.651c.922 0 1.673.758 1.673 1.693 0 .932-.751 1.689-1.673 1.689zm-21.651 2.491h21.651c.922 0 1.673.757 1.673 1.689 0 .936-.751 1.693-1.673 1.693h-21.651c-.925 0-1.675-.757-1.675-1.693 0-.932.75-1.689 1.675-1.689zm21.651 9.253h-21.651c-.925 0-1.675-.756-1.675-1.688 0-.937.75-1.693 1.675-1.693h21.651c.922 0 1.673.756 1.673 1.693 0 .932-.751 1.688-1.673 1.688zm0 5.873h-21.651c-.925 0-1.675-.756-1.675-1.691 0-.933.75-1.69 1.675-1.69h21.651c.922 0 1.673.757 1.673 1.69 0 .935-.751 1.691-1.673 1.691zm0 0" fill="#67737B" sketch:type="MSShapeGroup"/><path d="M26.827 9.383h-21.651c-.925 0-1.675-.757-1.675-1.689 0-.936.75-1.693 1.675-1.693h21.651c.922 0 1.673.758 1.673 1.693 0 .932-.751 1.689-1.673 1.689zm-21.651 2.491h21.651c.922 0 1.673.757 1.673 1.689 0 .936-.751 1.693-1.673 1.693h-21.651c-.925 0-1.675-.757-1.675-1.693 0-.932.75-1.689 1.675-1.689zm21.651 9.253h-21.651c-.925 0-1.675-.756-1.675-1.688 0-.937.75-1.693 1.675-1.693h21.651c.922 0 1.673.756 1.673 1.693 0 .932-.751 1.688-1.673 1.688zm0 5.873h-21.651c-.925 0-1.675-.756-1.675-1.691 0-.933.75-1.69 1.675-1.69h21.651c.922 0 1.673.757 1.673 1.69 0 .935-.751 1.691-1.673 1.691zm0 0" fill="#3A434E" sketch:type="MSShapeGroup"/></g></svg>
